web/ui/src/components/workflow/workflow-viewer/svgs/tool/dsl.svg

<svg height="16" viewBox="0 0 16 16" width="16" xmlns="http://www.w3.org/2000/svg"><g fill="none"><path d="m0 0h16v16h-16z" fill="#000" opacity="0"/><path d="m13.9265926 11.0003504c0 .2983184.2406741.5387956.5386863.5387956.2936297.0031693.534669-.237704.5383211-.5387956v-7.84638695c0-1.18851965-.9652528-2.15399377-2.1536495-2.15399377h-9.692701c-1.18839672 0-2.1536495.96507795-2.1536495 2.15399377v9.69237775c0 1.1881234.96525278 2.1536285 2.1536495 2.1536285h2.69233579c.29362967.0031384.53466896-.2377349.53832107-.5388265-.00401732-.3006955-.2446914-.5411726-.53832107-.5376071h-2.69233579c-.59492878 0-1.07664214-.4813504-1.07664214-1.0771949v-9.69237775c0-.59544835.48098294-1.07719498 1.07664214-1.07719498h9.692701c.595294 0 1.0766421.48174663 1.0766421 1.07759115zm-9.4090447-7.12536817c.84069969 0 1.26382282 1.01297408.68206814 1.61247774l1.36049139 2.82557502c.13881694-.00330012.27661567.0244762.40331399.08129669l1.39836646-1.23371293c-.18509656-.61297387.27526774-1.22547233.90995242-1.22547233.7544903 0 1.2056632.8376887.797912 1.46682683l1.2915556 2.02924779c.5815962-.07923654 1.0801525.3732041 1.0801525.94101316 0 .5251336-.4257049.9508385-.9508385.9508385-.7548073 0-1.2055047-.8378472-.7980704-1.46666839l-1.29155564-2.02940626c-.17502159.0251218-.35357872.00000619-.51487903-.0724222l-1.39820799 1.23371293c.18462114.61170609-.27415843 1.22563082-.9101109 1.22563082-.80852965 0-1.24100269-.9443411-.73182868-1.55779039l-1.38806571-2.88262533c-.51420342-.02960639-.91116581-.46355736-.8949655-.97835757.0162003-.51480021.43966233-.92293316.95470985-.92016408z" fill="#526579" transform="matrix(1 0 0 -1 0 15.99997)"/></g></svg>

<?xml version="1.0" encoding="UTF-8"?>
<svg width="16px" height="16px" viewBox="0 0 16 16" version="1.1" xmlns="http://www.w3.org/2000/svg" xmlns:xlink="http://www.w3.org/1999/xlink">
    <title>dsl</title>
    <g id="页面-1" stroke="none" stroke-width="1" fill="none" fill-rule="evenodd">
        <g id="系统设计规范" transform="translate(-358.000000, -5388.000000)" fill-rule="nonzero">
            <g id="dsl" transform="translate(358.000000, 5388.000000)">
                <rect id="矩形" fill="#000000" opacity="0" x="0" y="0" width="16" height="16"></rect>
                <path d="M13.9265926,11.0003504 C13.9265926,11.2986688 14.1672667,11.539146 14.4652789,11.539146 C14.7589086,11.5423153 14.9999479,11.301442 15.0036,11.0003504 L15.0036,3.15396345 C15.0036,1.9654438 14.0383472,0.999969676 12.8499505,0.999969676 L3.1572495,0.999969676 C1.96885278,0.999969676 1.0036,1.96504763 1.0036,3.15396345 L1.0036,12.8463412 C1.0036,14.0344646 1.96885278,14.9999697 3.1572495,14.9999697 L5.84958529,14.9999697 C6.14321496,15.0031081 6.38425425,14.7622348 6.38790636,14.4611432 C6.38388904,14.1604477 6.14321496,13.9199706 5.84958529,13.9235361 L3.1572495,13.9235361 C2.56232072,13.9235361 2.08060736,13.4421857 2.08060736,12.8463412 L2.08060736,3.15396345 C2.08060736,2.5585151 2.5615903,2.07676847 3.1572495,2.07676847 L12.8499505,2.07676847 C13.4452445,2.07676847 13.9265926,2.5585151 13.9265926,3.15435962 L13.9265926,11.0003504 Z M4.5175479,3.87498223 C5.35824759,3.87498223 5.78137072,4.88795631 5.19961604,5.48745997 L6.56010743,8.31303499 C6.69892437,8.30973487 6.8367231,8.33751119 6.96342142,8.39433168 L8.36178788,7.16061875 C8.17669132,6.54764488 8.63705562,5.93514642 9.2717403,5.93514642 C10.0262306,5.93514642 10.4774035,6.77283512 10.0696523,7.40197325 L11.3612079,9.43122104 C11.9428041,9.3519845 12.4413604,9.80442514 12.4413604,10.3722342 C12.4413604,10.8973678 12.0156555,11.3230727 11.4905219,11.3230727 C10.7357146,11.3230727 10.2850172,10.4852255 10.6924515,9.85640431 L9.40089586,7.82699805 C9.22587427,7.85211985 9.04731714,7.82700424 8.88601683,7.75457585 L7.48780884,8.98828878 C7.67242998,9.59999487 7.21365041,10.2139196 6.57769794,10.2139196 C5.76916829,10.2139196 5.33669525,9.2695785 5.84586926,8.65612921 L4.45780355,5.77350388 C3.94360013,5.74389749 3.54663774,5.30994652 3.56283805,4.79514631 C3.57903835,4.2803461 4.00250038,3.87221315 4.5175479,3.87498223 Z" id="形状" fill="#526579" transform="translate(8.003600, 7.999985) scale(1, -1) translate(-8.003600, -7.999985) "></path>
            </g>
        </g>
    </g>
</svg>
